X: 1107
T: A Minuet
%R: minet, waltz
B: Henry Playford "Apollo's Banquet", London 1687 (5th Edition)
F: https://archive.org/details/apollosbanquetco01rugg
Z: 2017 John Chambers <jc:trillian.mit.edu>
M: 3/2
L: 1/8
K: C
% - - - - - - - - - -
|:\
e2d2c2 B3cd2 | c2B2A2 BcBAG2 |\
g2f2e2 d3ef2 | e2d2c2 B6 ::\
B2e2B2 cdcBA2 | B2c2d2 ^c3de2 |
e2a2e2 f2ed^c2 | d2e2^c2 d6 |\
d2g2d2 efedc2 | c2f2A2 BcBcd2 |\
e2d2g2 e3fg2 | c3dB2 c6 |]
% - - - - - - - - - -

%%sep 1 1 500
%%sep 1 1 500

